antibot/app/images/dist/oport-icon6.svg

<svg width="40" height="40" viewBox="0 0 40 40" fill="none" xmlns="http://www.w3.org/2000/svg">
<path d="M20 3.33337L20.195 3.34504C20.567 3.38891 20.9134 3.55684 21.1783 3.82173C21.4432 4.08661 21.6111 4.43301 21.655 4.80504L21.6666 5.00004V11.6667L21.675 11.9167C21.7346 12.7103 22.0762 13.4564 22.6381 14.0201C23.1999 14.5838 23.9449 14.9278 24.7383 14.99L25 15H31.6666L31.8616 15.0117C32.2337 15.0556 32.5801 15.2235 32.8449 15.4884C33.1098 15.7533 33.2778 16.0997 33.3216 16.4717L33.3333 16.6667V31.6667C33.3334 32.9421 32.8461 34.1692 31.9712 35.0971C31.0962 36.0251 29.8998 36.5836 28.6266 36.6584L28.3333 36.6667H11.6666C10.3913 36.6668 9.1641 36.1795 8.23619 35.3046C7.30828 34.4296 6.74978 33.2332 6.67496 31.96L6.66663 31.6667V8.33337C6.66655 7.05802 7.15383 5.83085 8.02877 4.90294C8.9037 3.97503 10.1001 3.41653 11.3733 3.34171L11.6666 3.33337H20Z" fill="#0085FF"/>
<path d="M31.6666 11.6666H25L24.9983 4.99829L31.6666 11.6666Z" fill="#0085FF"/>
</svg>

<svg width="40" height="40" fill="none" xmlns="http://www.w3.org/2000/svg"><path d="m20 3.333.195.012a1.667 1.667 0 0 1 1.46 1.46l.012.195v6.667l.008.25a3.333 3.333 0 0 0 3.063 3.073L25 15h6.667l.195.012a1.666 1.666 0 0 1 1.46 1.46l.011.195v15a5 5 0 0 1-4.706 4.991l-.294.009H11.667a5 5 0 0 1-4.992-4.707l-.008-.293V8.333a5 5 0 0 1 4.706-4.991l.294-.009H20Z" fill="#0085FF"/><path d="M31.667 11.667H25l-.002-6.669 6.669 6.669Z" fill="#0085FF"/></svg>
